X:1
T: Peter Pointer
C:Bruce Shawyer
R:Reel
Q:232
K:D
M:4/4
L:1/8
|:d|"D"AF DF "Em"EF "D"D2|"Em"B,E EF E2 "A7"GB|"D"AF DF "Em"EF "D"D2|"G"B,D "A7"FA "D"D2Dd|
"D"AF DF "Em"EF "D"D2|"Em"B,E EF E2 "A7"GB|"D"AF DF "Em"EF "D"D2|"G"B,D "A7"FA "D"D2Df|
"D"ag fe fd d2|"Em"Be ef e2 "A7"gb|"D"ag fe fd d2|"G"dB "A7"AF "D"D2Df|
"D"ag fe fd d2|"Em"Be ef e2 "A7"gb|"D"ag fe fd d2|"G"dB "A7"AF "D"D2D:|
